X:1
T:Canzona Napoletana
T:Canzona Napoletana
T:Antonio Scandello (1517-1580) arr. Felix Scharpf 
T:for Recorder Quartet
T:"Voria che tu cantass' una canzon"
T:twoflutes 2016 rev. 2020 / Felix Scharpf / https://commons.wikimedia.org/wiki/File:Antonius_Scandellus_medal.png
T:twoflutes 2016 rev. 2020 / Felix Scharpf / https://commons.wikimedia.org/wiki/File:Antonius_Scandellus_medal.png
T:twoflutes 2016 rev. 2020 / Felix Scharpf / https://commons.wikimedia.org/wiki/File:Antonius_Scandellus_medal.png
C:Antonio Scandello
Z:twoflutes 2016 rev. 2020 / Felix Scharpf / https://commons.wikimedia.org/wiki/File:Antonius_Scandellus_medal.png
%%score [ 1 2 3 4 ]
L:1/8
Q:1/4=130
M:4/4
K:C
V:1 treble nm="Altblockflöte" snm="A.bfl."
V:2 treble nm="Tenorblockflöte" snm="T.bfl."
V:3 bass+8 nm="Bassblockflöte" snm="B.bfl."
V:4 bass+8 nm="Großbassblockflöte" snm="Gbbfl."
V:1
!mf! c4 | c2 d2 e2 d2 | d2 c2 .A (c2 B) | c4 z2!p! c2 | c2 d2 e2 d2 | d2 c2 .A (c2 B) | %6
[M:2/4] !breath!c2!mf! e2 | .f.f .d.d | c2 B2 | c2 dc | cd d2 | %11
 .d e2[Q:1/4=90]"_rall.                        a tempo" g- | g[Q:1/4=80]^f/e/ Pf2 | %13
[Q:1/4=130] g4 |: z e .f.f | g2 e2 | z!p! e .f.f | a2 g2 | z!mf! f2 f | .a.a g2 | e4 | z2 c2 | %22
 B2 f2 | e2 ec | d2 .eg- | gg .eg | g2 .eg- | gg .a.a | g2 e2 | z f2 f |1 .a.a g2 | e4- | e4 :|2 %33
[Q:1/4=80]"_rit." .a.a[Q:1/4=60] g2 |[Q:1/4=60]!>(! !fermata!e4!>)! |] %35
V:2
!mf! G4 | A2 B2 c2 A2 | B2 G2 .F(E G2) | G4 z2!p! G2 | A2 B2 c2 A2 | B2 G2 .F(E G2) | %6
[M:2/4] !breath!G2!mf! c2 | cc BB | A2 d2 | G2 GG | AB A2 | .B c2 B | d4 | d2 z G |: .G.G c2- | %15
 c2 c2 | z!p! c cc | c4 |!mf! d4 | c2 B2 | AE G2 | A3 E | G2 .AA- | A.E G2- | G2 e2 | d2 .cc- | %26
 c.B c2 | G2 c2 | B2 .c.c | d2 _B2 |1 .c.c BB | G4 | E2 z G :|2 .c.c BB |!>(! !fermata!G4!>)! |] %35
V:3
!mf! E,4 | E,2 G,2 G,2 F,2 | G,2 E,2 .C,(C, D,2) | E,4 z2!p! E,2 | E,2 G,2 G,2 F,2 | %5
 G,2 E,2 .C,(C, D,2) |[M:2/4] !breath!E,2!mf! A,2 | A,A, G,G, | E,2 G,2 | E,2 D,E, | F, G,2 ^F, | %11
 .G, G,2 G, | A,4 | B,G, .G,.G, |: C2 A,2 | z G, .G,.G, | C2 A,2 | F,2 E,2 | F,!mf!D, D,2 | %19
 E,F, D,2 | C,4 | F,2 E,2 | E,B,, D,2 | E,4 | z2 C,2 | B,,2 E,E, | D,2 E,2 | C,D, E,F, | D,2 E,2 | %29
 F,3 D, |1 E,F, D,2 | C,4 | z G, .G,.G, :|2 E,F, D,2 |!>(! !fermata!C,4!>)! |] %35
V:4
!mf! C,4 | A,,2 G,,2 C,2 D,2 | G,,2 C,2 .F,,(A,, G,,2) | C,,4 z2!p! C,2 | A,,2 G,,2 C,2 D,2 | %5
 G,,2 C,2 .F,,(A,, G,,2) |[M:2/4] !breath!C,,2!mf! C,2 | F,,F,, G,,G,, | A,,2 G,,2 | C,2 B,,C, | %10
 A,,G,, D,2 | .G,, C,2 E, | D,4 | G,,2 z C, |: .C,.C, F,,2 | C,2 z C, | .C,!p!.C, F,,2- | %17
 F,,2 C,2 | _B,,3!mf! B,, | A,,F,, G,,2 | A,,2 z2 | F,,2 A,,2 | E,,G,, D,,2 | A,,2 z C,- | %24
 C,B,, A,,E,, | G,,2 A,,E,, | G,,2 .C,,C,- | C,.B,, A,,F,, | G,,2 C,2 | _B,,3 B,, |1 A,,F,, G,,2 | %31
 C,,4- | C,,2 z C, :|2 A,,F,, G,,2 |!>(! !fermata!C,,4!>)! |] %35

